X: 1
T:The £42 Cheque
M:C|
L:1/8
Q:80
C:arr. Kent Hiestand
S:Polka
K:HP
{g}eafa/2f/2|
{g}eA{d}cA|
{g}dB{g}eB|  !
{g}e{A}e/2d/2{g}cB|
{g}Aafa/2f/2|
{g}eA{d}cA|1  !
{g}dB{g}e3/2f/2|
{g}ed{gdG}d2:| |
|2 {g}dB{g}e{A}e/2d/2|  !
{g}cA{d}A|] |:
e|
{g}Aafd|
g{f}g/2f/2{g}ed|  !
{g}((3cBA){g}eA|
{g}e{A}e/2d/2{g}cB|
{g}Ad{g}fd|  !
g{f}g/2f/2{g}ed|
{g}cA{d}Bc|
{Gdc}d2{gdG}d2:|  !
